icons/measure-building-height-top-base-32.svg

<svg xmlns="http://www.w3.org/2000/svg" viewBox="0 0 32 32"><path d="M4 4h3v3H4zm5 3h3V4H9zm-5 7h3v-3H4zm5 0h3v-3H9zm-5 7h3v-3H4zm5 0h3v-3H9zm-5 7h3v-3H4zm5 0h3v-3H9zm23 3v1H0v-1h1V0h14v31zm-18 0V1H2v30zm2-3l1.5 2 1.5-2h-1V2h1l-1.5-2L16 2h1v26z"/></svg>

<svg id="icons" xmlns="http://www.w3.org/2000/svg" viewBox="0 0 32 32"><title>measure-building-height-top-base-32</title><path d="M4,4H7V7H4ZM9,7h3V4H9ZM4,14H7V11H4Zm5,0h3V11H9ZM4,21H7V18H4Zm5,0h3V18H9ZM4,28H7V25H4Zm5,0h3V25H9Zm23,3v1H0V31H1V0H15V31ZM14,31V1H2V31Zm2-3,1.5,2L19,28H18V2h1L17.5,0,16,2h1V28Z"/></svg>
